src/icon/entity/present/icon_present_m_white.svg

<svg xmlns="http://www.w3.org/2000/svg" width="21" height="23" viewBox="0 0 21 23"><g fill="none" fill-rule="evenodd"><path d="M-2 0h24v24H-2z"/><path fill="#FFF" d="M13 17l-2.5-2.5L8 17V7.5h5z" opacity=".3"/><path fill="#FFF" d="M20 23V13h1V7H0v6h1v10h19zM1 8h19v4h-4v1h3v9H2v-9h3v-1H1V8zm15.1-2.9l.6.8c.8-.5 1.3-1.4 1.4-2.4.1-.9-.3-1.7-.9-2.3C15.4-.2 13 .8 10.5 4 8 .8 5.6-.2 3.9 1.2c-.6.6-1 1.4-.9 2.3.1 1 .6 1.9 1.4 2.4l.6-.8c-.6-.4-1-1-1-1.7 0-.5.2-1.1.6-1.4 1.3-1 3.1 0 5.2 2.6l.8 1 .8-1C13.3 2 15.2 1 16.4 2c.4.3.6.9.6 1.4 0 .7-.4 1.3-.9 1.7z"/></g></svg>

<svg xmlns="http://www.w3.org/2000/svg" width="24" height="24" viewBox="0 0 24 24"><g fill="#FFF"><polygon fill="none" points="0 0 24 0 24 24 0 24" opacity="0"/><g transform="translate(1)"><polygon points="13 17 10.5 14.5 8 17 8 7.5 13 7.5" opacity=".3"/><path d="M20,23 L20,13 L21,13 L21,7 L0,7 L0,13 L1,13 L1,23 L20,23 Z M1,8 L20,8 L20,12 L16,12 L16,13 L19,13 L19,22 L2,22 L2,13 L5,13 L5,12 L1,12 L1,8 Z M16.1,5.1 L16.7,5.9 C17.5,5.4 18,4.5 18.1,3.5 C18.2,2.6 17.8,1.8 17.2,1.2 C15.4,-0.2 13,0.8 10.5,4 C8,0.8 5.6,-0.2 3.9,1.2 C3.3,1.8 2.9,2.6 3,3.5 C3.1,4.5 3.6,5.4 4.4,5.9 L5,5.1 C4.4,4.7 4,4.1 4,3.4 C4,2.9 4.2,2.3 4.6,2 C5.9,1 7.7,2 9.8,4.6 L10.6,5.6 L11.4,4.6 C13.3,2 15.2,1 16.4,2 C16.8,2.3 17,2.9 17,3.4 C17,4.1 16.6,4.7 16.1,5.1 Z"/></g></g></svg>
